X:1
T:Awakening Wolf's Instinct
T:Awakening Wolf's Instinct (Fanmade Momiji's Theme) 
T:Thundercloud2023
T:Original by senpi
C:Original by senpi
Z:Arranged by Natasha
%%score { 1 | 2 }
L:1/8
Q:1/4=180
M:3/4
K:A
V:1 treble nm="Piano" snm="Pno."
V:2 bass 
V:1
"^\n" F3 F GA | F3 F GA | G3 G AB | G3 G AB | cB AB AG | F2 G2 A2 | G2 GG GG | %7
 [Gc][Gc] [Gc][Gc] [Gc][Gc] | [cf]3 [cf] [eg][fa] | [cf]3 [cf] [eg][fa] | [eg]2 [fa]2 [gb]2 | %11
 [eg][fa] [eg][ce] [Gc]2 | [Ad]2 [Be]2 [cf]2 | [df]2 [eg]2 [fa]2 | [fa]2 [gb]2 [fa]2 | %15
 [=fg]4 [c^f][eg] | [fa]4 [cf][eg] | [fa]2 [gb]2 [fa]2 | [eg]2 [Be]2 [c'e']2 | [ac']4 [ac']2 | %20
 [ac']2 [fa]2 [cf]2 | [ceg]2 [cf]2 [Gce]2 | [cf][eg] [fa][gb] [fa][eg] | [cf]4 B/c/d/e/ | %24
[K:D] f2 B2 Bf | e2 a2 ed | c2 d2 ef | ed d2 Bc | d2 G2 Gf | e2 d2 c/d/c/B/ | A2 F2 A2 | %31
 B4 B/c/d/e/ | f2 B2 Bf | e2 a2 ed | cd ea c'e' | d'4 bc' | d'2 c'2 b2 | d'2 c'2 b2 | %38
 c'2 c'c' c'c' | [c'f'][c'f'] [c'f'][c'f'] [c'f'][c'f'] | %40
[K:A][M:4/4] [Aa]3 [Aa] [Aa]3/2[Gg]3/2[Aa] | [Bb]2 [Aa]2 [Gg][Aa][Gg][Ff] | %42
 [Ee]2 [Gg]2 [Bb]2 [ee']2 | [dd']2 [cc']2 [cc']2 [Bb][cc'] | [Bb][cc'] [Ff]2 [Ff]2 [Ee][Ff] | %45
 [Gg]2 [Aa]2 [Bb][Aa][Gg][Ff] | [Ee]2 [Cc] [Ee]2 [Cc]2 [Ee]- | [Ee][Ff] [Ff]2 [FAf]2 [GBg]2 | %48
 [Aca]3 [Aca] [Aca]3/2[GBg]3/2[Aca] | [Beb]2 [Aca]2 [GBg][Aca][GBg][FAf] | %50
 [Ece]2 [GBg]2 [Beb]2 [ege']2 | [dgd']2 [cfc']2 [cfc']2 [dd'][ee'] | [ff']2 [ee']2 [dd']2 [cc']2 | %53
 [Beb]2 [Ada]2 [Beb]2 [dfd']2 | [cc']2 [cc'][cc'] [cc'][cc'][cc'][cc'] | %55
 [c=fc'][cfc'][cfc'][cfc'] [cfc'][cfc'][cfc'][cfc'] |[M:3/4] F3 F GA | F3 F GA | G3 G AB | %59
 c3 c eg | ag ff gf |[Q:1/4=170] fc fc Ac |[Q:1/4=160] Gc Gc Gc |[Q:1/4=140] G=f cf Gf | %64
[Q:1/4=120]!8va(! f'4 c'2 | c'3 c' ba | b2 c'2 e'2 | c'4 z c' | c'2 a2 f2 | g2 f2 fe | fg ab ag | %71
 !arpeggio![cf]6- | [cf]6!8va)! |[K:bass]!8vb(! !fermata![F,,,C,,]6!8vb)! |] %74
V:2
 F,C, F,A, F,C, | D,A,, D,F, D,A,, | B,,E,, B,,E, B,G, | C,G, CE CG, | F,A, DE, G,B, | %5
 F,D, A,D, B,D, | G,C, F,C, F,C, | =F,C, ^F,C, G,C, | F,C, F,A, F,C, | D,A,, D,F, D,A,, | %10
 E,B,, E,G, E,B,, | C,G,, C,E, C,G,, | D,,A,, D,E, F,D, | D,,B,, D,F, B,F, | G,,C, =F,^F, G,=F, | %15
 [C,=F,]2 [F,G,]2 [G,C]2 | F,,C, F,G, [A,C]2 | D,,A,, D,E, [F,B,]2 | E,,B,, E,G, [G,B,]2 | %19
 C,A, G,E, C,E, | [D,A,]2 [A,D]2 [DF]2 | [E,G,]2 [G,C]2 [CE]2 | F,D FG, EG | A,F GA GF | %24
[K:D] G,2 [B,D]2 [B,D]2 | A,2 [CE]2 [CE]2 | F,2 [A,C]2 [A,C]2 | B,2 [DF]2 [DF]2 | %28
 G,2 [B,D]2 [B,D]2 | A,2 [CE]2 [CE]2 | F,2 [A,C]2 [A,C]2 | B,2 [DF]2 [DF]2 | G,,D, G,D, G,D, | %33
 A,,E, A,E, A,E, | F,,C, F,C, F,C, | B,,F, B,F, B,F, | G,D G [Bd]3 | A,E A [ce]3 | c_B cB cB | %39
 fc fc ^ge |[K:A][M:4/4][K:bass] D,[F,A,]D,[F,A,] D,[F,A,]D,[F,A,] | %41
 E,[G,B,]E,[G,B,] E,[G,B,]E,[G,B,] | C,[E,G,]C,[E,G,] C,[E,G,]C,[E,G,] | %43
 C,[F,A,]C,[F,A,] C,[F,A,]C,[F,A,] | D,[F,A,]D,[F,A,] D,[F,A,]D,[F,A,] | %45
 E,[G,B,]E,[G,B,] E,[G,B,]E,[G,B,] | C,[E,G,]C,[E,G,] C,[E,G,]C,[E,G,] | %47
 C,[F,A,]C,[F,A,] C,[F,A,]C,[F,A,] | F,,D,F,D, A,F,D,F, | G,,E,G,E, B,G,E,G, | G,,C,G,C, CG,C,G, | %51
 F,,C,F,C, A,F,C,F, | F,,D,F,D, A,F,D,F, | G,,E,G,E, B,G,E,G, | =F,G,F,G, F,G,F,G, | %55
 =F,G,F,G, F,G,F,G, |[M:3/4] F,C, F,A, F,C, | D,A,, D,F, D,A,, | B,,E,, B,,E, B,,G,, | %59
 C,G,, C,E, C,G,, | F,A, DE, G,B, |"^rit." F,D, A,D, B,D, | G,C, F,C, F,C, | =F,C, ^F,C, G,C, | %64
[K:treble] F,C FG [Ac]2 | D,A, DE [FB]2 | E,B, EF [GB]2 | CA GE CE |[K:bass] D,,A,, A,,D, D,F, | %69
 E,,G,, G,,C, C,E, | F,A, DG, EG | !arpeggio![F,,C,F,]6- | [F,,C,F,]6- | !fermata![F,,C,F,]6 |] %74

